X:0824
T:Old Towler.
M:6/8
L:1/8
Q:3/8=100
I: :| ||
Z:Jack Campin * www.campin.me.uk * 2009
K:D
 A            |d2d B2G|F2G  A2=c|B2d ^ceg|f3-  f2A   |d2 d f2d|B2 B e2d|c2c BAB|A2z   z2:|
 A            |e2c A2A|f2d  A2 A|c2d  g2f|e3-  e2A   |A^GA Bcd|ef=g afd|B2e d2c|d3    z
 DF|           A3  A3 |Ad2- d2 A|AFA  AFA|Ad2- d2A/c/|e3   e3 |ea2- a2e|ece ece|eg2-  g2
 a/g/         |fdz z2f|eAz  z2 g|fdz  z2f|eAz  z2A   |dff  dfz|d2z  d2z|dff dff|fa2  Hz2
(A//G//F//E//)|DG2 F2B|A2g  f2 d|e2e  cBc|d3   g3    |f2f  ede|a3  Tg3 |f2f ede|d3    z2|]

